Pods/ProtonCore-UIFoundations/libraries/UIFoundations/Sources/Assets.xcassets/Images/IconSet/ic-calendar-grid.imageset/ic-calendar-grid.svg

<svg width="24" height="24" viewBox="0 0 24 24" fill="none" xmlns="http://www.w3.org/2000/svg">
<path fill-rule="evenodd" clip-rule="evenodd" d="M4.5 2.25V3.25606C2.75221 3.87381 1.5 5.54067 1.5 7.5V18C1.5 20.4853 3.51472 22.5 6 22.5H7.5H9H15H16.5H18C20.4853 22.5 22.5 20.4853 22.5 18V7.5C22.5 5.54067 21.2478 3.87381 19.5 3.25606V2.25C19.5 1.83579 19.1642 1.5 18.75 1.5C18.3358 1.5 18 1.83579 18 2.25V3H6V2.25C6 1.83579 5.66421 1.5 5.25 1.5C4.83579 1.5 4.5 1.83579 4.5 2.25ZM6 4.5H18C19.6569 4.5 21 5.84315 21 7.5H16.5H15H9H7.5L3 7.5C3 5.84315 4.34315 4.5 6 4.5ZM15 9H9V12H15V9ZM15 13.5H9V16.5H15V13.5ZM16.5 16.5V13.5H21V16.5H16.5ZM15 18H9V21H15V18ZM16.5 21V18H21C21 19.6569 19.6569 21 18 21H16.5ZM16.5 12V9H21V12H16.5ZM3 9H7.5V12H3V9ZM3 13.5H7.5V16.5H3V13.5ZM3 18H7.5V21H6C4.34315 21 3 19.6569 3 18Z" fill="#0C0C14"/>
</svg>

<svg xmlns="http://www.w3.org/2000/svg" width="24" height="24" viewBox="0 0 24 24">
  <g class="ic-calendar-grid">
    <path fill-rule="evenodd" d="M4.5 2.25v1.006a4.502 4.502 0 0 0-3 4.244V18A4.5 4.5 0 0 0 6 22.5h12a4.5 4.5 0 0 0 4.5-4.5V7.5a4.502 4.502 0 0 0-3-4.244V2.25a.75.75 0 0 0-1.5 0V3H6v-.75a.75.75 0 0 0-1.5 0ZM6 4.5h12a3 3 0 0 1 3 3H3a3 3 0 0 1 3-3ZM15 9H9v3h6V9Zm0 4.5H9v3h6v-3Zm1.5 3v-3H21v3h-4.5ZM15 18H9v3h6v-3Zm1.5 3v-3H21a3 3 0 0 1-3 3h-1.5Zm0-9V9H21v3h-4.5ZM3 9h4.5v3H3V9Zm0 4.5h4.5v3H3v-3ZM3 18h4.5v3H6a3 3 0 0 1-3-3Z" class="Icon"/>
  </g>
</svg>
